X: 1
P: Jack Broke da Prison Door
C: Jack Goudie
C: Hand me Doon da Fiddle
C: arr. T. Traub 4-28-2003
R: Reel
M: 4/4
L: 1/8
K: G
|: D2|"G"G2 BG BdBG|"Am"cBAB "D"dBAB|"G"G2 BG BdBG|"C"ABAG "E"E2 D :|
|: "G" [g2B2] gd edBG| "G"g2 gd "D"eaaf|"G"g2 gd edBG|"Am"ABAG "D"E2 D2 :|
